X: 26785
T: Miller Of Droghan, The
R: reel
M: 4/4
K: Gmajor
|:GGBG DGBG|EBef gedB|GGBG DGBA|GGGA BgdB|
GGBG DGBG|EBef gfed|f2 ef deBA|1 GGGA B/c/d BA:|2 GGGA ABBd||
|:e2 ~E2 DEBE|DEGA BBBA|GEEE DEBE|DEGA BABd|
e2 ~E2 DEBE|DEGA BBBA|GEEE DEBE|1 DEGA BABd:|2 DEGA BBBA||

